X:27
T:gwel yr adeilad Edor
N:The Edor gwel yr adeilad IS very
N:nice on the flute.
Z:ceri
M:C
Q:1/4=100
K:Edor
:E2BB|=cB/A/G/F/E-|E2e2|dcBd|cB3|B2BG|1AB3:|2AB||
:B2|d3c|BAdc|B3B|Bede-|eBBe|de2B|
Bede-|eedB/A/|GAB2-|BBBg|gffe-|eBBG|A/G/FE2-|Ez:||
